icon-themes/breeze_svg/cmd/ca/sc_underline.svg

<svg viewBox="0 0 16 16" xmlns="http://www.w3.org/2000/svg"><path d="m8.28125 1c-2.1159382-.01932598-4.6039912 1.2400225-4.0839844 4.0390625.8034243 2.9297677 3.801865 2.5268601 5.3378906 4.3398437 2.1813558 3.1304858-3.1575347 3.6943998-4.7851562-.3613281h-.75v2.1855469c0 2.188312 9.489697 3.448766 7.75-2.7382812-.75-1.493079-1.7503614-1.9468961-3.5859375-2.8613282-5.582437-2.42353.7281025-6.0253833 2.1171875-.6035156h1.71875v-1c0-1.6791312-2.27365-2.9867812-3.71875-3zm-6.28125 14v1h12v-1z" fill="#4d4d4d"/></svg>

<svg xmlns="http://www.w3.org/2000/svg" viewBox="0 0 16 16">
  <path
     style="fill:#4d4d4d"
     d="M 8.28125 1 C 6.1653118 0.98067402 3.6772588 2.2400225 4.1972656 5.0390625 C 5.0006899 7.9688302 7.9991306 7.5659226 9.5351562 9.3789062 C 11.716512 12.509392 6.3776215 13.073306 4.75 9.0175781 L 4 9.0175781 L 4 11.203125 C 4 13.391437 13.489697 14.651891 11.75 8.4648438 C 11 6.9717648 9.9996386 6.5179477 8.1640625 5.6035156 C 2.5816255 3.1799856 8.892165 -0.4218677 10.28125 5 L 12 5 L 12 4 C 12 2.3208688 9.72635 1.0132188 8.28125 1 z M 2 15 L 2 16 L 14 16 L 14 15 L 2 15 z "
     />
</svg>
